svg/ionicons/arrow-down-right-box-sharp.svg

<svg xmlns="http://www.w3.org/2000/svg" width="512" height="512" viewBox="0 0 512 512"><path fill-rule="evenodd" d="M480 480H315.636v-32h109.737l-43.637-43.636h22.628v-22.628L448 425.372V315.636h32zM216 193.372l188.364 188.364V32H32v372.364h349.736L193.373 216z" clip-rule="evenodd"/></svg>

<svg width="512" height="512" viewBox="0 0 512 512" xmlns="http://www.w3.org/2000/svg">
<path fill-rule="evenodd" clip-rule="evenodd" d="M480 480L315.636 480V448L425.373 448L381.736 404.364H404.364V381.736L448 425.372L448 315.636H480L480 480ZM216 193.372L404.364 381.736L404.364 31.9999L32.0001 31.9999V404.364H381.736L193.373 216L216 193.372Z" />
</svg>
